X:1
T:Juhu!!!
C:Jan Erik Massey
Z:All Rights Reserved
L:1/4
M:4/4
K:C
V:1 treble nm="C Trumpet"
%%MIDI program 56
V:1
 C D E E | E E E/ E F/ | E D/D/ D E/D/ | D/E/F/G/ E/D/ E | E F E/D/ D | E D C E/D/ | E/F/ D E E | %7
 z z z2 | z4 | z4 | z4 | z4 |] %12

